X:1
T:Title
T:Hymne des femmes (air des marais)
T:Rudy GOGUEL
C:Composer
L:1/8
M:4/4
K:G
V:1 treble nm="Piano" snm="Pno."
V:1
 (E2 E2 E2 GF | E3 B, E2 (E2) | A2 F2 G2 E2 | F2 B,2 E2) z2 | (G2 G2 G2 BA | G3 D G2 G2) | %6
w: Nous qui somm' sans pas-|sé les fem- mes|nous qui n'a- vons|pas d'his- toir'|De- puis la nuit des|temps les fem- mes|
 (A2 F2 G2 E2 | F2 B,2 E2) (D2 | B3 B B2 G2 | A4 F2) (F2 | G3 G G2 E2 | F4 F2) (B,2 | %12
w: nous somm' le con-|ti- nent- noir, Le-|vons- nous femm' es-|cla- ves et|bri- sons nos en-|tra- ves, de-|
 E2) z2 z2 (B,2 | E2) z2 z4 |] %14
w: bout de-|bout.|

